X:66
T:Jig. RDO.66
M:6/8
L:1/8
Q:3/8=110
S:Robert D. Owen MS,Indiana,1826.
R:.Jig
O:Indiana,USA
A:New Harmony
Z:vmp.Chris Partington
K:D
e/d/|B<ee e2f|g2a bag|f>d’a b<ag|f<dd d2e|!
B<ee e2f|g2a bag|fd’a bag|gee e2:|!
B/d/|e2f g>fe|d<BG G2G|B>cd {e}d>cB|AFD D2B|!
e2e gfe|d<BGG2G|B>cd AFA|BGE E2||!
B/d/|e2f g>fe|d<BG G2G|B>cd {e}d>cB|AFD D2B|!
Bee e2e|g2a bag|fd’a baf|gee e2|]

